synths/sNEAR.svg

<svg width="42" height="42" viewBox="0 0 42 42" fill="none" xmlns="http://www.w3.org/2000/svg">
<g clip-path="url(#clip0_7277_57901)">
<mask id="mask0_7277_57901" style="mask-type:alpha" maskUnits="userSpaceOnUse" x="0" y="0" width="42" height="42">
<circle cx="21" cy="21" r="21" transform="matrix(-1 0 0 1 42 0)" fill="url(#paint0_linear_7277_57901)"/>
</mask>
<g mask="url(#mask0_7277_57901)">
<circle cx="21" cy="21" r="21" transform="matrix(-1 0 0 1 42 0)" fill="#34EDB3"/>
<circle cx="18.2" cy="18.2" r="18.2" transform="matrix(-1 0 0 1 39.2 2.80005)" fill="white"/>
</g>
<circle cx="16.1" cy="16.1" r="16.1" transform="matrix(-1 0 0 1 37.1 4.90002)" fill="#0B0B22"/>
<circle cx="21" cy="21" r="16.1" fill="#DBDBDB"/>
<path d="M26.5897 12.6731L22.7191 18.4236C22.4514 18.8152 22.9662 19.2893 23.3367 18.9595L27.1456 15.6411C27.2485 15.5586 27.3926 15.6205 27.3926 15.7648V26.1321C27.3926 26.2764 27.2073 26.3383 27.125 26.2352L15.5956 12.4258C15.225 11.9723 14.6897 11.725 14.0926 11.725H13.6809C12.6103 11.725 11.725 12.6113 11.725 13.7036V28.2963C11.725 29.3887 12.6103 30.275 13.7014 30.275C14.3809 30.275 15.0191 29.9246 15.3897 29.3269L19.2603 23.5764C19.5279 23.1848 19.0132 22.7107 18.6426 23.0405L14.8338 26.3383C14.7309 26.4207 14.5867 26.3589 14.5867 26.2146V15.8678C14.5867 15.7235 14.772 15.6617 14.8544 15.7648L26.3838 29.5742C26.7544 30.0276 27.3103 30.275 27.8867 30.275H28.2985C29.3897 30.275 30.275 29.3887 30.275 28.2963V13.7036C30.275 12.6113 29.3897 11.725 28.2985 11.725C27.5985 11.725 26.9603 12.0754 26.5897 12.6731Z" fill="black"/>
</g>
<defs>
<linearGradient id="paint0_linear_7277_57901" x1="21" y1="0" x2="21" y2="61.4091" gradientUnits="userSpaceOnUse">
<stop stop-color="#08021E"/>
<stop offset="1" stop-color="#1F0777"/>
</linearGradient>
<clipPath id="clip0_7277_57901">
<rect width="42" height="42" fill="white"/>
</clipPath>
</defs>
</svg>

<svg xmlns="http://www.w3.org/2000/svg" width="42" height="42" fill="none"><g clip-path="url(#a)"><mask id="c" width="42" height="42" x="0" y="0" maskUnits="userSpaceOnUse" style="mask-type:alpha"><circle cx="21" cy="21" r="21" fill="url(#b)" transform="matrix(-1 0 0 1 42 0)"/></mask><g mask="url(#c)"><circle cx="21" cy="21" r="21" fill="#34EDB3" transform="matrix(-1 0 0 1 42 0)"/><circle cx="18.2" cy="18.2" r="18.2" fill="#fff" transform="matrix(-1 0 0 1 39.2 2.8)"/></g><circle cx="16.1" cy="16.1" r="16.1" fill="#0B0B22" transform="matrix(-1 0 0 1 37.1 4.9)"/><circle cx="21" cy="21" r="16.1" fill="#DBDBDB"/><path fill="#000" d="m26.59 12.673-3.87 5.75c-.269.392.246.866.617.537l3.809-3.319c.102-.082.247-.02.247.124v10.367c0 .144-.186.206-.268.103l-11.53-13.81c-.37-.453-.905-.7-1.502-.7h-.412c-1.07 0-1.956.886-1.956 1.979v14.592c0 1.093.885 1.979 1.976 1.979.68 0 1.318-.35 1.689-.948l3.87-5.75c.268-.392-.247-.866-.617-.537l-3.81 3.298c-.102.083-.246.02-.246-.123V15.868c0-.145.185-.206.267-.103l11.53 13.81c.37.453.926.7 1.503.7h.412a1.978 1.978 0 0 0 1.976-1.979V13.704a1.978 1.978 0 0 0-1.976-1.979c-.7 0-1.339.35-1.71.948Z"/></g><defs><linearGradient id="b" x1="21" x2="21" y1="0" y2="61.409" gradientUnits="userSpaceOnUse"><stop stop-color="#08021E"/><stop offset="1" stop-color="#1F0777"/></linearGradient><clipPath id="a"><path fill="#fff" d="M0 0h42v42H0z"/></clipPath></defs></svg>
